X: 148
T: The Kinnegad slashers
C: anon.
O: Ireland
B: Francis O'Neill: "The Dance Music of Ireland" (1907) no. 148
R: Double jig
Z: Transcribed by Frank Nordberg - http://www.musicaviva.com
F: http://www.musicaviva.com/abc/tunes/ireland/oneill-1001/oneill-1001-014
8.abc
M: 6/8
L: 1/8
K: D
A|d>ed dAF|A>BA ABc|d>ed dAF|(E<e)e e2f|d>ed dAF|ABA Aag|{g}fef dBA|(B<d)
d d2:|
|:A|d>fe afd|c>de ecA|d>fa afd|(f<a)a a2A|(d<f)a afd|c>de eag|{g}fef dBA|
(B<d)d d2:|
|:(3A/B/c/|dAG dAF|A>BA ABc|dAF dAF|(E<e)e e2f|dAF dAF|A>BA Aag|{g}fef dB
A|(B<d)d d2:|
W:
W:
W: From Musica Viva - http://www.musicaviva.com
W: the Internet center for free sheet music downloads.


